Catalina-dark/actions/22/view-calendar-week.svg

<svg xmlns="http://www.w3.org/2000/svg" viewBox="0 0 22 22">
  <defs id="defs3051">
    <style type="text/css" id="current-color-scheme">
      .ColorScheme-Text {
        color:#f2f2f2
      }
      </style>
  </defs>
    <path
       style="fill:currentColor;fill-opacity:1;stroke:none"
       class="ColorScheme-Text"
       d="M 4,3 C 3.44598,3 3,3.44598 3,4 l 0,14 c 0,0.55402 0.44598,1 1,1 l 14,0 c 0.55402,0 1,-0.44598 1,-1 L 19,4 C 19,3.44598 18.55402,3 18,3 L 4,3 Z M 7.11914,6 A 1.2697625,1.2697625 0 0 1 8.38867,7.26953 1.2697625,1.2697625 0 0 1 7.11914,8.54102 1.2697625,1.2697625 0 0 1 5.84961,7.26953 1.2697625,1.2697625 0 0 1 7.11914,6 Z m 3.87305,0 A 1.2697625,1.2697625 0 0 1 12.26172,7.26953 1.2697625,1.2697625 0 0 1 10.99219,8.54102 1.2697625,1.2697625 0 0 1 9.72266,7.26953 1.2697625,1.2697625 0 0 1 10.99219,6 Z m 3.88867,0 A 1.2697625,1.2697625 0 0 1 16.15039,7.26953 1.2697625,1.2697625 0 0 1 14.88086,8.53906 1.2697625,1.2697625 0 0 1 13.61133,7.26953 1.2697625,1.2697625 0 0 1 14.88086,6 Z M 7.11914,13.46094 A 1.2697625,1.2697625 0 0 1 8.38867,14.73047 1.2697625,1.2697625 0 0 1 7.11914,16 1.2697625,1.2697625 0 0 1 5.84961,14.73047 1.2697625,1.2697625 0 0 1 7.11914,13.46094 Z"
        />
    <path
       style="fill:#2ecc71;fill-opacity:1;stroke:none"
       d="m 14.880849,9.729465 a 1.2697625,1.2697625 0 0 0 -1.26953,1.27149 1.2697625,1.2697625 0 0 0 1.26953,1.26953 1.2697625,1.2697625 0 0 0 1.26954,-1.26953 1.2697625,1.2697625 0 0 0 -1.26954,-1.27149 z m -7.7617096,0.002 a 1.2697625,1.2697625 0 0 0 -1.26953,1.26954 1.2697625,1.2697625 0 0 0 1.26953,1.26953 1.2697625,1.2697625 0 0 0 1.26953,-1.26953 1.2697625,1.2697625 0 0 0 -1.26953,-1.26954 z m 3.8730396,0 a 1.2697625,1.2697625 0 0 0 -1.2695296,1.26954 1.2697625,1.2697625 0 0 0 1.2695296,1.26953 1.2697625,1.2697625 0 0 0 1.26953,-1.26953 1.2697625,1.2697625 0 0 0 -1.26953,-1.26954 z"
        />
</svg>

<svg viewBox="0 0 22 22" xmlns="http://www.w3.org/2000/svg">
<defs>
<style id="current-color-scheme" type="text/css">.ColorScheme-Text {
        color:#f2f2f2
      }</style>
</defs>
<path class="ColorScheme-Text" d="m4 3c-0.55402 0-1 0.44598-1 1v14c0 0.55402 0.44598 1 1 1h14c0.55402 0 1-0.44598 1-1v-14c0-0.55402-0.44598-1-1-1h-14zm3.1191 3a1.2698 1.2698 0 0 1 1.2695 1.2695 1.2698 1.2698 0 0 1-1.2695 1.2715 1.2698 1.2698 0 0 1-1.2695-1.2715 1.2698 1.2698 0 0 1 1.2695-1.2695zm3.873 0a1.2698 1.2698 0 0 1 1.2695 1.2695 1.2698 1.2698 0 0 1-1.2695 1.2715 1.2698 1.2698 0 0 1-1.2695-1.2715 1.2698 1.2698 0 0 1 1.2695-1.2695zm3.8887 0a1.2698 1.2698 0 0 1 1.2695 1.2695 1.2698 1.2698 0 0 1-1.2695 1.2695 1.2698 1.2698 0 0 1-1.2695-1.2695 1.2698 1.2698 0 0 1 1.2695-1.2695zm-7.7617 7.4609a1.2698 1.2698 0 0 1 1.2695 1.2695 1.2698 1.2698 0 0 1-1.2695 1.2695 1.2698 1.2698 0 0 1-1.2695-1.2695 1.2698 1.2698 0 0 1 1.2695-1.2695z" fill="currentColor"/>
<path d="m14.881 9.7295a1.2698 1.2698 0 0 0-1.2695 1.2715 1.2698 1.2698 0 0 0 1.2695 1.2695 1.2698 1.2698 0 0 0 1.2695-1.2695 1.2698 1.2698 0 0 0-1.2695-1.2715zm-7.7617 2e-3a1.2698 1.2698 0 0 0-1.2695 1.2695 1.2698 1.2698 0 0 0 1.2695 1.2695 1.2698 1.2698 0 0 0 1.2695-1.2695 1.2698 1.2698 0 0 0-1.2695-1.2695zm3.873 0a1.2698 1.2698 0 0 0-1.2695 1.2695 1.2698 1.2698 0 0 0 1.2695 1.2695 1.2698 1.2698 0 0 0 1.2695-1.2695 1.2698 1.2698 0 0 0-1.2695-1.2695z" fill="#2ecc71"/>
</svg>
